X:1
T:Lungo rivi queti ombrosi 8.7.8.7.D.Coro 
T:Franz Schubert (1797-1828)
T:Pelos bosques e campinas
T:Salmo 23 metr. João Wilson Faustini, 1957
%%score { ( 1 3 ) | ( 2 4 ) }
L:1/8
M:3/4
K:Eb
V:1 treble nm="Piano, Staff"
V:3 treble 
V:2 bass 
V:4 bass 
V:1
"Eb" [GB] [Ac] | [GB]3"Bother" [FA] [FA] [GB] | [FA]2"Eb" [EG]2"Eb/G" [EB] [EB] | %3
"Bb" [DB]3 [DF] [DF] [DG] |"Eb" [B,E]4 [EG]"Ab/Eb" [EA] |"Bb" [DG]3 [DF] [DF] [DG] | %6
 [DF]2"Eb" E2 [B,G]"Cm" [CG] |"F/A" [CF]3"F7" [CE]"Bb/F" D"F" C |"Bb" [B,D]4 B, C | %9
 [B,D]"Eb/Bb" [B,E]"Bb7" [B,F]3"Eb/Bb" [B,E] | [B,E]2"Bb" [B,D]2 [B,D]"F7/Bb" [CE] | %11
"Bb" [DF]"Eb/Bb" [EG]"Bb7" [DA]2"F7/Bb" [C=A]2 |"Bb" [B,B]4"Eb" [GB] [Ac] | %13
 [GB]3"Bb7/D" [FA] [FA]"Bb6/D" [GB] |"Bb7/D" [FA]2"Eb" [EG]2 [EB] [EB] | %15
"Ab" [Ec]3 [Ce]"Bb/Ab" [Dd]"Ab" [Ec] |"Eb" [EB]4 ||"^Estribilho" [EG]"Ab/Eb" [EA] | %18
"Bb6" [DG]3"Bb7" [DF] [DF]"Bb6" [DG] |"Bb7" [DF]2"Cm" [CE]2"Ab6" [CA] [CF] | %20
"Eb/Bb" [B,E]3 [EG]"Bb7" [DF]"Eb/Bb" [B,E] |"Eb" !fermata![B,E]6 |] %22
V:2
 [E,B,] [E,B,] | [E,B,]3 [D,B,] [D,B,] [D,B,] | [D,B,]2 [E,B,]2 [G,B,] [G,B,] | %3
 [F,B,]3 [F,A,] [F,A,] [B,,B,] | [E,G,]4 [E,B,] [E,C] | [B,,B,]3 [B,,A,] [B,,A,] [B,,B,] | %6
 [B,,A,]2 [E,G,]2 E, E, | [=A,,F,]3 [F,=A,] [F,B,] [F,A,] | [B,,F,]4 [B,,D,] [B,,E,] | %9
 [B,,F,] [B,,G,] [B,,A,]3 [B,,G,] | [B,,G,]2 [B,,F,]2 [B,,B,] [B,,=A,] | %11
 [B,,_A,] [B,,G,] [B,,F,]2 [B,,E,]2 | [B,,D,]4 [E,B,] [E,B,] | [E,B,]3 [D,B,] [D,B,] [D,B,] | %14
 [D,B,]2 [E,B,]2 [E,G,] [E,G,] | A,3 [A,C] B, [F,A,] | [E,G,]4 || [E,B,] [E,C] | %18
 [B,,B,]3 [B,,A,] [B,,A,] [B,,B,] | [B,,A,]2 [C,G,]2 [A,,F,] [A,,A,] | G,3 B, [B,,A,] [B,,G,] | %21
 G,6 |] %22
V:3
 x2 | x6 | x6 | x6 | x6 | x6 | x2 E2 x2 | x4 D C | x4 B, B, | x6 | x6 | x6 | x6 | x6 | x6 | x6 | %16
 x4 || x2 | x6 | x6 | x6 | x6 |] %22
V:4
 x2 | x6 | x6 | x6 | x6 | x6 | x4 E, C, | x6 | x6 | x6 | x6 | x6 | x6 | x6 | x6 | A,3 x A, x | %16
 x4 || x2 | x6 | x6 | B,,2 B,,2 x2 | !fermata!E,6 |] %22

